svgs/light/xmark-to-slot.svg

<svg xmlns="http://www.w3.org/2000/svg" viewBox="0 0 576 512"><!-- Font Awesome Pro 6.0.0-alpha2 by @fontawesome - https://fontawesome.com License - https://fontawesome.com/license (Commercial License) --><path d="M80 416H496C504.836 416 512 408.836 512 400S504.836 384 496 384H480V80C480 53.492 458.51 32 432 32H144C117.49 32 96 53.492 96 80V384H80C71.164 384 64 391.164 64 400S71.164 416 80 416ZM128 80C128 71.164 135.164 64 144 64H432C440.836 64 448 71.164 448 80V384H128V80ZM528 320C519.156 320 512 327.156 512 336S519.156 352 528 352C536.812 352 544 359.172 544 368V432C544 440.828 536.812 448 528 448H48C39.188 448 32 440.828 32 432V368C32 359.172 39.188 352 48 352C56.844 352 64 344.844 64 336S56.844 320 48 320C21.531 320 0 341.531 0 368V432C0 458.469 21.531 480 48 480H528C554.469 480 576 458.469 576 432V368C576 341.531 554.469 320 528 320ZM363.312 132.688C357.062 126.438 346.937 126.438 340.688 132.688L288 185.375L235.312 132.688C229.062 126.438 218.937 126.438 212.688 132.688S206.438 149.063 212.688 155.312L265.375 208L212.688 260.688C206.438 266.938 206.438 277.063 212.688 283.312C218.934 289.559 229.059 289.566 235.312 283.312L288 230.625L340.688 283.312C346.934 289.559 357.059 289.566 363.312 283.312C369.562 277.062 369.562 266.937 363.312 260.688L310.625 208L363.312 155.312C369.562 149.062 369.562 138.938 363.312 132.688Z"/></svg>

<svg xmlns="http://www.w3.org/2000/svg" viewBox="0 0 576 512"><!--! Font Awesome Pro 6.3.0 by @fontawesome - https://fontawesome.com License - https://fontawesome.com/license (Commercial License) Copyright 2023 Fonticons, Inc. --><path d="M80 416h416c8.836 0 16-7.164 16-16S504.8 384 496 384H480V80C480 53.49 458.5 32 432 32h-288C117.5 32 96 53.49 96 80V384H80C71.16 384 64 391.2 64 400S71.16 416 80 416zM128 80C128 71.16 135.2 64 144 64h288C440.8 64 448 71.16 448 80V384H128V80zM528 320c-8.844 0-16 7.156-16 16s7.156 16 16 16c8.812 0 16 7.172 16 16v64c0 8.828-7.188 16-16 16h-480C39.19 448 32 440.8 32 432v-64C32 359.2 39.19 352 48 352C56.84 352 64 344.8 64 336S56.84 320 48 320C21.53 320 0 341.5 0 368v64C0 458.5 21.53 480 48 480h480c26.47 0 48-21.53 48-48v-64C576 341.5 554.5 320 528 320zM363.3 132.7c-6.25-6.25-16.38-6.25-22.62 0L288 185.4L235.3 132.7c-6.25-6.25-16.38-6.25-22.62 0s-6.25 16.38 0 22.62L265.4 208L212.7 260.7c-6.25 6.25-6.25 16.38 0 22.62c6.246 6.246 16.37 6.254 22.62 0L288 230.6l52.69 52.69c6.246 6.246 16.37 6.254 22.62 0c6.25-6.25 6.25-16.38 0-22.62L310.6 208l52.69-52.69C369.6 149.1 369.6 138.9 363.3 132.7z"/></svg>
